icons/svg/16x16/renew horizontal/outline.svg

<svg xmlns="http://www.w3.org/2000/svg" width="16" height="16" viewBox="0 0 16 16">
  <path fill-rule="evenodd" d="M13,7.0001 C12.448,7.0001 12,7.4471 12,8.0001 C12,9.6541 10.654,11.0001 9,11.0001 L6,11.0001 L6,9.0001 L2,12.0001 L6,15.0001 L6,13.0001 L9,13.0001 C11.757,13.0001 14,10.7571 14,8.0001 C14,7.4471 13.552,7.0001 13,7.0001 M2,8.0001 C2,5.2431 4.243,3.0001 7,3.0001 L10,3.0001 L10,1.0001 L14,4.0001 L10,7.0001 L10,5.0001 L7,5.0001 C5.346,5.0001 4,6.3461 4,8.0001 C4,8.5531 3.552,9.0001 3,9.0001 C2.448,9.0001 2,8.5531 2,8.0001"/>
</svg>

<svg width="16" height="16" fill="none" xmlns="http://www.w3.org/2000/svg">
  <path fill-rule="evenodd" clip-rule="evenodd" d="M13 7a1 1 0 00-1 1c0 1.654-1.346 3-3 3H6V9l-4 3 4 3v-2h3c2.757 0 5-2.243 5-5a1 1 0 00-1-1zM2 8c0-2.757 2.243-5 5-5h3V1l4 3-4 3V5H7C5.346 5 4 6.346 4 8a1 1 0 11-2 0z" fill="#000"/>
</svg>
